svg/u1f9db_1f3fb_200d_2642.svg

<svg viewBox="0 0 128 128" xmlns="http://www.w3.org/2000/svg" xmlns:xlink="http://www.w3.org/1999/xlink">
  <g id="collar">
    <g>
      <linearGradient id="SVGID_1_" gradientTransform="matrix(1 0 0 1 0 2)" gradientUnits="userSpaceOnUse" x1="64" x2="64" y1="125.0974" y2="65.5615">
        <stop offset="3.200000e-03" stop-color="#4E4E4E"/>
        <stop offset="0.1517" stop-color="#484848"/>
        <stop offset="0.427" stop-color="#373838"/>
        <stop offset="0.7959" stop-color="#1C1D1D"/>
        <stop offset="1" stop-color="#010101"/>
      </linearGradient>
      <path d="M4,74.82c0,0,23.95-9.01,60-8.84c17.58,0.08,37.33,3.02,60,8.84c0,0-23.39,45.35-60,45.35 S7.92,83.79,4,74.82z" fill="url(#SVGID_1_)"/>
    </g>
    <g>
      <linearGradient id="SVGID_2_" gradientTransform="matrix(1 0 0 -1 0 130)" gradientUnits="userSpaceOnUse" x1="63" x2="63" y1="64.442" y2="18.2552">
        <stop offset="3.200000e-03" stop-color="#E51E25"/>
        <stop offset="0.2992" stop-color="#DF1E25"/>
        <stop offset="0.5651" stop-color="#D01E25"/>
        <stop offset="0.8186" stop-color="#BA1E23"/>
        <stop offset="1" stop-color="#A51E22"/>
      </linearGradient>
      <polygon fill="url(#SVGID_2_)" points="63,65.97 63,65.98 63,65.98 "/>
      <linearGradient id="SVGID_3_" gradientTransform="matrix(1 0 0 -1 0 130)" gradientUnits="userSpaceOnUse" x1="64" x2="64" y1="64.442" y2="18.2552">
        <stop offset="3.200000e-03" stop-color="#F70000"/>
        <stop offset="0.2347" stop-color="#F30000"/>
        <stop offset="0.4427" stop-color="#E90000"/>
        <stop offset="0.6417" stop-color="#D60000"/>
        <stop offset="0.834" stop-color="#BD0000"/>
        <stop offset="1" stop-color="#A00000"/>
      </linearGradient>
      <path d="M63,65.98V66V65.98c-0.01,0-0.03,0-0.04,0C27.41,65.98,4,74.82,4,74.82 c3.92,7.81,23.23,37.01,59.83,37.01S124,74.82,124,74.82C101.57,68.19,80.77,65.98,63,65.98z" fill="url(#SVGID_3_)"/>
    </g>
  </g>
  <radialGradient id="robe_1_" cx="65.1119" cy="6.2497" gradientTransform="matrix(1 0 0 -0.5085 0 126.9283)" gradientUnits="userSpaceOnUse" r="60.4477">
    <stop offset="0.5681" stop-color="#212121"/>
    <stop offset="1" stop-color="#616161"/>
  </radialGradient>
  <path id="robe" d="M64.14,96H64c-25.65,0.03-52,7.1-52,24.99v2.97h1.5H15h98h1.5h1.5v-2.97 C116,104.13,89.9,96,64.14,96z" fill="url(#robe_1_)"/>
  <path id="neck" d="M73.08,90.08H54.92v9.98c0,4.51,3.7,8.17,8.26,8.17h1.65c4.56,0,8.26-3.66,8.26-8.17v-9.98 H73.08z" fill="#EDC391"/>
  <linearGradient id="shirt_2_" gradientTransform="matrix(1 0 0 -1 0 130)" gradientUnits="userSpaceOnUse" x1="63.8495" x2="63.8495" y1="23.9419" y2="6.8122">
    <stop offset="0.7824" stop-color="#FFFFFF"/>
    <stop offset="1" stop-color="#E1E1E1"/>
  </linearGradient>
  <polygon id="shirt_1_" fill="url(#shirt_2_)" points="78.93,124.24 73,106 55,106 48.77,124.24 "/>
  <path id="ears" d="M91.33,50.43H36.67c-5.89,0-10.71,5.14-10.71,11.41c0,6.28,4.82,11.41,10.71,11.41h54.65 c5.89,0,10.71-5.14,10.71-11.41C102.04,55.57,97.22,50.43,91.33,50.43z" fill="#EDC391"/>
  <path id="head" d="M64,11.07c-17.4,0-33.52,18.61-33.52,45.39c0,26.64,16.61,39.81,33.52,39.81 S97.52,83.1,97.52,56.46C97.52,29.68,81.4,11.07,64,11.07z" fill="#F9DDBD"/>
  <g id="eyes">
    <ellipse cx="47.56" cy="58.81" fill="#312D2D" rx="4.93" ry="5.1"/>
    <ellipse cx="80.44" cy="58.81" fill="#312D2D" rx="4.93" ry="5.1"/>
  </g>
  <path id="nose" d="M67.86,68.06c-0.11-0.04-0.21-0.07-0.32-0.08h-7.07c-0.11,0.01-0.22,0.04-0.32,0.08 c-0.64,0.26-0.99,0.92-0.69,1.63s1.71,2.69,4.55,2.69c2.84,0,4.25-1.99,4.55-2.69C68.85,68.98,68.5,68.32,67.86,68.06z" fill="#DBA689"/>
  <path id="mouth" d="M72.42,76.14c-3.19,1.89-13.63,1.89-16.81,0c-1.83-1.09-3.7,0.58-2.94,2.24 c0.75,1.63,6.45,5.42,11.37,5.42s10.55-3.79,11.3-5.42C76.09,76.72,74.25,75.05,72.42,76.14z" fill="#444444"/>
  <g id="hair">
    <path id="hair_1_" d="M64.02,4.03H64c0,0-0.01,0-0.02,0c-33.49,0.18-37.24,28.96-36.9,44.08 c0,0.18,0.01,0.35,0.01,0.52c0,0.09,0,0.18,0.01,0.27c0.1,3.33,0.4,5.91,0.59,7.25c0.01,0.04,0.01,0.08,0.02,0.12c0,0,0,0,0,0 c0.08,0.56,0.13,0.87,0.13,0.87s0,0,0,0.01c0,0.01,0,0.02,0,0.02s2.23,3.93,3.74,6.54c0.76,1.31,1.34,2.3,1.37,2.3 c-0.01-0.37-0.02-0.84-0.03-1.36c-0.01-1.25-0.01-2.79,0.04-4.53c0.01-0.15,0.02-0.31,0.03-0.45c0-0.01-0.01-0.03-0.02-0.04 c0.37-10.23,2.54-26.55,13.07-29.18c8.02-2.01,16.51,6.46,17.77,7.78c1.26-1.32,9.75-9.79,17.77-7.78 c13.25,3.31,13.27,28.29,13.11,35.54c0,0.18,5.1-8.81,5.1-8.81s0.03-0.19,0.09-0.55c0.16-0.28,0.25-0.44,0.25-0.44 S109.45,4.27,64.02,4.03z" fill="#312D2D"/>
    <radialGradient id="hairHighlights_1_" cx="64.3229" cy="88.3461" gradientTransform="matrix(1 0 0 -1 0 130)" gradientUnits="userSpaceOnUse" r="38.3899">
      <stop offset="0.7945" stop-color="#454140" stop-opacity="0"/>
      <stop offset="1" stop-color="#454140"/>
    </radialGradient>
    <path id="hairHighlights" d="M64.02,4.03H64c0,0-0.01,0-0.02,0 c-33.49,0.18-37.24,28.96-36.9,44.08c0,0.18,0.01,0.35,0.01,0.52c0,0.09,0,0.18,0.01,0.27c0.1,3.33,0.4,5.91,0.59,7.25 c0.01,0.04,0.01,0.08,0.02,0.12c0,0,0,0,0,0c0.08,0.56,0.13,0.87,0.13,0.87s0,0,0,0.01c0,0.01,0,0.02,0,0.02s2.23,3.93,3.74,6.54 c0.76,1.31,1.34,2.3,1.37,2.3c-0.01-0.37-0.02-0.84-0.03-1.36c-0.01-1.25-0.01-2.79,0.04-4.53c0.01-0.15,0.02-0.31,0.03-0.45 c0-0.01-0.01-0.03-0.02-0.04c0.37-10.23,2.54-26.55,13.07-29.18c8.02-2.01,16.51,6.46,17.77,7.78c1.26-1.32,9.75-9.79,17.77-7.78 c13.25,3.31,13.27,28.29,13.11,35.54c0,0.18,5.1-8.81,5.1-8.81s0.03-0.19,0.09-0.55c0.16-0.28,0.25-0.44,0.25-0.44 S109.45,4.27,64.02,4.03z" fill="url(#hairHighlights_1_)"/>
  </g>
  <g id="teeth">
    <g>
      <defs>
        <path id="SVGID_4_" d="M72.42,76.14c-3.19,1.89-13.63,1.89-16.81,0c-1.83-1.09-3.7,0.58-2.94,2.24 c0.75,1.63,6.45,5.42,11.37,5.42s10.55-3.79,11.3-5.42C76.09,76.72,74.25,75.05,72.42,76.14z"/>
      </defs>
      <clipPath id="SVGID_5_">
        <use overflow="visible" xlink:href="#SVGID_4_"/>
      </clipPath>
      <g clip-path="url(#SVGID_5_)">
        <polygon fill="#FFFFFF" points="55.33,75.66 56.33,80.65 58.67,76.71 "/>
        <polygon fill="#FFFFFF" points="72.67,75.66 71.67,80.65 69.33,76.71 "/>
      </g>
    </g>
  </g>
  <g id="bow_x5F_ty">
    <linearGradient id="SVGID_6_" gradientTransform="matrix(1 0 0 1 0 2)" gradientUnits="userSpaceOnUse" x1="63.995" x2="63.995" y1="100" y2="110.51">
      <stop offset="3.200000e-03" stop-color="#E51E25"/>
      <stop offset="0.4439" stop-color="#E11E25"/>
      <stop offset="0.652" stop-color="#D71E25"/>
      <stop offset="0.8113" stop-color="#C61E24"/>
      <stop offset="0.9449" stop-color="#B11E23"/>
      <stop offset="1" stop-color="#A51E22"/>
    </linearGradient>
    <path d="M77.78,106.06c0-2.26-0.48-4.71-1.29-6.62c-0.13-0.32-0.48-0.48-0.84-0.45 c-3.71,0.58-7.36,2.23-9.49,4.36c-0.16,0.16-0.36,0.23-0.55,0.23h-3.2c-0.23,0-0.42-0.1-0.55-0.23c-2.16-2.13-5.78-3.74-9.52-4.36 c-0.36-0.03-0.71,0.13-0.84,0.45c-0.81,1.9-1.29,4.36-1.29,6.62h0.13v0.06v-0.06h-0.13c0,2.58,0.48,4.78,1.29,6.71 c0.13,0.32,0.48,0.52,0.84,0.48c3.74-0.58,7.36-2.2,9.49-4.33c0.16-0.16,0.36-0.23,0.55-0.23h3.23c0.23,0,0.42,0.1,0.55,0.23 c2.13,2.13,5.75,3.74,9.49,4.33c0.36,0.06,0.68-0.16,0.84-0.48C77.3,110.84,77.78,108.64,77.78,106.06v0.06V106.06z" fill="url(#SVGID_6_)"/>
    <path d="M64.82,109.69h-1.64c-1.01,0-1.84-0.83-1.84-1.84v-3.69c0-1.01,0.83-1.84,1.84-1.84h1.64 c1.01,0,1.84,0.83,1.84,1.84v3.69C66.66,108.86,65.83,109.69,64.82,109.69z" fill="#E51E25"/>
  </g>
  <g id="eyebrows_2_">
    <path d="M87.98,50.77L87.98,50.77c0-0.01-2.27-3.7-7.55-3.7s-7.56,3.69-7.56,3.69l0,0.01 c-0.19,0.27-0.3,0.59-0.3,0.94c0,0.89,0.7,1.62,1.57,1.62c0.18,0,0.62-0.13,0.66-0.15c3.16-1.35,5.64-1.35,5.64-1.35 s2.46,0.01,5.62,1.36c0.04,0.02,0.48,0.15,0.66,0.15c0.86,0,1.57-0.72,1.57-1.62C88.28,51.36,88.17,51.04,87.98,50.77z" fill="#454140"/>
    <path d="M55.15,50.76L55.15,50.76c0.01-0.01-2.27-3.7-7.55-3.7s-7.56,3.69-7.56,3.69l0.01,0.01 c-0.19,0.27-0.3,0.59-0.3,0.94c0,0.89,0.7,1.62,1.57,1.62c0.18,0,0.62-0.13,0.66-0.15c3.16-1.35,5.64-1.35,5.64-1.35 s2.46,0.01,5.62,1.36c0.04,0.02,0.48,0.15,0.66,0.15c0.87,0,1.57-0.72,1.57-1.62C55.45,51.35,55.33,51.03,55.15,50.76z" fill="#454140"/>
  </g>
</svg>

<svg viewBox="0 0 128 128" xmlns="http://www.w3.org/2000/svg">
  <defs>
    <radialGradient id="robe_1_" cx="65.1119" cy="-243.363476" gradientTransform="matrix(1 0 0 -0.5085 0 0)" gradientUnits="userSpaceOnUse" r="60.4477">
      <stop offset="0.5681" stop-color="#212121"/>
      <stop offset="1" stop-color="#616161"/>
    </radialGradient>
    <linearGradient id="shirt_2_" gradientTransform="matrix(1 0 0 -1 0 0)" gradientUnits="userSpaceOnUse" x1="63.8495" x2="63.8495" y1="-106.0581" y2="-123.1878">
      <stop offset="0.7824" stop-color="#FFFFFF"/>
      <stop offset="1" stop-color="#E1E1E1"/>
    </linearGradient>
    <radialGradient id="hairHighlights_1_" cx="64.3229" cy="-41.6539" gradientTransform="matrix(1 0 0 -1 0 0)" gradientUnits="userSpaceOnUse" r="38.3899">
      <stop offset="0.7945" stop-color="#454140" stop-opacity="0"/>
      <stop offset="1" stop-color="#454140"/>
    </radialGradient>
    <linearGradient id="SVGID_6_" gradientUnits="userSpaceOnUse" x1="63.995" x2="63.995" y1="102" y2="112.51">
      <stop offset="3.200000e-03" stop-color="#E51E25"/>
      <stop offset="0.4439" stop-color="#E11E25"/>
      <stop offset="0.652" stop-color="#D71E25"/>
      <stop offset="0.8113" stop-color="#C61E24"/>
      <stop offset="0.9449" stop-color="#B11E23"/>
      <stop offset="1" stop-color="#A51E22"/>
    </linearGradient>
    <linearGradient id="SVGID_1_" gradientUnits="userSpaceOnUse" x1="64" x2="64" y1="127.0974" y2="67.5615">
      <stop offset="3.200000e-03" stop-color="#4E4E4E"/>
      <stop offset="0.1517" stop-color="#484848"/>
      <stop offset="0.427" stop-color="#373838"/>
      <stop offset="0.7959" stop-color="#1C1D1D"/>
      <stop offset="1" stop-color="#010101"/>
    </linearGradient>
    <linearGradient id="SVGID_2_" gradientTransform="matrix(1 0 0 -1 0 0)" gradientUnits="userSpaceOnUse" x1="63" x2="63" y1="-65.558" y2="-111.7448">
      <stop offset="3.200000e-03" stop-color="#E51E25"/>
      <stop offset="0.2992" stop-color="#DF1E25"/>
      <stop offset="0.5651" stop-color="#D01E25"/>
      <stop offset="0.8186" stop-color="#BA1E23"/>
      <stop offset="1" stop-color="#A51E22"/>
    </linearGradient>
    <linearGradient id="SVGID_3_" gradientTransform="matrix(1 0 0 -1 0 0)" gradientUnits="userSpaceOnUse" x1="64" x2="64" y1="-65.558" y2="-111.7448">
      <stop offset="3.200000e-03" stop-color="#F70000"/>
      <stop offset="0.2347" stop-color="#F30000"/>
      <stop offset="0.4427" stop-color="#E90000"/>
      <stop offset="0.6417" stop-color="#D60000"/>
      <stop offset="0.834" stop-color="#BD0000"/>
      <stop offset="1" stop-color="#A00000"/>
    </linearGradient>
  </defs>
  <path d="M4,74.82 C4,74.82 27.95,65.81 64,65.98 C81.58,66.06 101.33,69 124,74.82 C124,74.82 100.61,120.17 64,120.17 C27.39,120.17 7.92,83.79 4,74.82 Z" fill="url(#SVGID_1_)"/>
  <path d="M63,65.98 L63,66 L63,65.98 C62.99,65.98 62.97,65.98 62.96,65.98 C27.41,65.98 4,74.82 4,74.82 C7.92,82.63 27.23,111.83 63.83,111.83 C100.43,111.83 124,74.82 124,74.82 C101.57,68.19 80.77,65.98 63,65.98 Z" fill="url(#SVGID_3_)"/>
  <path id="robe" d="M64.14,96 L64,96 C38.35,96.03 12,103.1 12,120.99 L12,123.96 L13.5,123.96 L15,123.96 L113,123.96 L114.5,123.96 L116,123.96 L116,120.99 C116,104.13 89.9,96 64.14,96 Z" fill="url(#robe_1_)"/>
  <path id="neck" d="M73.08,90.08 L54.92,90.08 L54.92,100.06 C54.92,104.57 58.62,108.23 63.18,108.23 L64.83,108.23 C69.39,108.23 73.09,104.57 73.09,100.06 L73.09,90.08 L73.08,90.08 Z" fill="#EDC391"/>
  <path id="shirt_1_" d="M78.93,124.24 L73,106 L55,106 L48.77,124.24 Z" fill="url(#shirt_2_)"/>
  <path id="ears" d="M91.33,50.43 L36.67,50.43 C30.78,50.43 25.96,55.57 25.96,61.84 C25.96,68.12 30.78,73.25 36.67,73.25 L91.32,73.25 C97.21,73.25 102.03,68.11 102.03,61.84 C102.04,55.57 97.22,50.43 91.33,50.43 Z" fill="#EDC391"/>
  <path id="head" d="M64,11.07 C46.6,11.07 30.48,29.68 30.48,56.46 C30.48,83.1 47.09,96.27 64,96.27 C80.91,96.27 97.52,83.1 97.52,56.46 C97.52,29.68 81.4,11.07 64,11.07 Z" fill="#F9DDBD"/>
  <path d="M52.49,58.81 A4.93 5.1 0 1 1 42.63,58.81 A4.93 5.1 0 1 1 52.49,58.81 Z" fill="#312D2D"/>
  <path d="M85.37,58.81 A4.93 5.1 0 1 1 75.51,58.81 A4.93 5.1 0 1 1 85.37,58.81 Z" fill="#312D2D"/>
  <path id="nose" d="M67.86,68.06 C67.75,68.02 67.65,67.99 67.54,67.98 L60.47,67.98 C60.36,67.99 60.25,68.02 60.15,68.06 C59.51,68.32 59.16,68.98 59.46,69.69 C59.76,70.4 61.17,72.38 64.01,72.38 C66.85,72.38 68.26,70.39 68.56,69.69 C68.85,68.98 68.5,68.32 67.86,68.06 Z" fill="#DBA689"/>
  <path id="mouth" d="M72.42,76.14 C69.23,78.03 58.79,78.03 55.61,76.14 C53.78,75.05 51.91,76.72 52.67,78.38 C53.42,80.01 59.12,83.8 64.04,83.8 C68.96,83.8 74.59,80.01 75.34,78.38 C76.09,76.72 74.25,75.05 72.42,76.14 Z" fill="#444444"/>
  <path id="hair_1_" d="M64.02,4.03 L64,4.03 C64,4.03 63.99,4.03 63.98,4.03 C30.49,4.21 26.74,32.99 27.08,48.11 C27.08,48.29 27.09,48.46 27.09,48.63 C27.09,48.72 27.09,48.81 27.1,48.9 C27.2,52.23 27.5,54.81 27.69,56.15 C27.7,56.19 27.7,56.23 27.71,56.27 C27.71,56.27 27.71,56.27 27.71,56.27 C27.79,56.83 27.84,57.14 27.84,57.14 C27.84,57.14 27.84,57.14 27.84,57.15 C27.84,57.16 27.84,57.17 27.84,57.17 C27.84,57.17 30.07,61.1 31.58,63.71 C32.34,65.02 32.92,66.01 32.95,66.01 C32.94,65.64 32.93,65.17 32.92,64.65 C32.91,63.4 32.91,61.86 32.96,60.12 C32.97,59.97 32.98,59.81 32.99,59.67 C32.99,59.66 32.98,59.64 32.97,59.63 C33.34,49.4 35.51,33.08 46.04,30.45 C54.06,28.44 62.55,36.91 63.81,38.23 C65.07,36.91 73.56,28.44 81.58,30.45 C94.83,33.76 94.85,58.74 94.69,65.99 C94.69,66.17 99.79,57.18 99.79,57.18 C99.79,57.18 99.82,56.99 99.88,56.63 C100.04,56.35 100.13,56.19 100.13,56.19 C100.13,56.19 109.45,4.27 64.02,4.03 Z" fill="#312D2D"/>
  <path id="hairHighlights" d="M64.02,4.03 L64,4.03 C64,4.03 63.99,4.03 63.98,4.03 C30.49,4.21 26.74,32.99 27.08,48.11 C27.08,48.29 27.09,48.46 27.09,48.63 C27.09,48.72 27.09,48.81 27.1,48.9 C27.2,52.23 27.5,54.81 27.69,56.15 C27.7,56.19 27.7,56.23 27.71,56.27 C27.71,56.27 27.71,56.27 27.71,56.27 C27.79,56.83 27.84,57.14 27.84,57.14 C27.84,57.14 27.84,57.14 27.84,57.15 C27.84,57.16 27.84,57.17 27.84,57.17 C27.84,57.17 30.07,61.1 31.58,63.71 C32.34,65.02 32.92,66.01 32.95,66.01 C32.94,65.64 32.93,65.17 32.92,64.65 C32.91,63.4 32.91,61.86 32.96,60.12 C32.97,59.97 32.98,59.81 32.99,59.67 C32.99,59.66 32.98,59.64 32.97,59.63 C33.34,49.4 35.51,33.08 46.04,30.45 C54.06,28.44 62.55,36.91 63.81,38.23 C65.07,36.91 73.56,28.44 81.58,30.45 C94.83,33.76 94.85,58.74 94.69,65.99 C94.69,66.17 99.79,57.18 99.79,57.18 C99.79,57.18 99.82,56.99 99.88,56.63 C100.04,56.35 100.13,56.19 100.13,56.19 C100.13,56.19 109.45,4.27 64.02,4.03 Z" fill="url(#hairHighlights_1_)"/>
  <path d="M55.404,76.029 C55.473,76.062 55.541,76.099 55.61,76.14 C56.28,76.538 57.271,76.852 58.449,77.082 L56.33,80.65 Z" fill="#FFFFFF"/>
  <path d="M72.42,76.14 C72.478,76.106 72.535,76.074 72.593,76.045 L71.67,80.65 L69.554,77.087 C70.743,76.856 71.744,76.54 72.42,76.14 Z" fill="#FFFFFF"/>
  <path d="M77.78,106.06 C77.78,103.8 77.3,101.35 76.49,99.44 C76.36,99.12 76.01,98.96 75.65,98.99 C71.94,99.57 68.29,101.22 66.16,103.35 C66,103.51 65.8,103.58 65.61,103.58 L62.41,103.58 C62.18,103.58 61.99,103.48 61.86,103.35 C59.7,101.22 56.08,99.61 52.34,98.99 C51.98,98.96 51.63,99.12 51.5,99.44 C50.69,101.34 50.21,103.8 50.21,106.06 L50.34,106.06 L50.34,106.12 L50.34,106.06 L50.21,106.06 C50.21,108.64 50.69,110.84 51.5,112.77 C51.63,113.09 51.98,113.29 52.34,113.25 C56.08,112.67 59.7,111.05 61.83,108.92 C61.99,108.76 62.19,108.69 62.38,108.69 L65.61,108.69 C65.84,108.69 66.03,108.79 66.16,108.92 C68.29,111.05 71.91,112.66 75.65,113.25 C76.01,113.31 76.33,113.09 76.49,112.77 C77.3,110.84 77.78,108.64 77.78,106.06 L77.78,106.12 L77.78,106.06 Z" fill="url(#SVGID_6_)"/>
  <path d="M64.82,109.69 L63.18,109.69 C62.17,109.69 61.34,108.86 61.34,107.85 L61.34,104.16 C61.34,103.15 62.17,102.32 63.18,102.32 L64.82,102.32 C65.83,102.32 66.66,103.15 66.66,104.16 L66.66,107.85 C66.66,108.86 65.83,109.69 64.82,109.69 Z" fill="#E51E25"/>
  <path d="M87.98,50.77 L87.98,50.77 C87.98,50.76 85.71,47.07 80.43,47.07 C75.15,47.07 72.87,50.76 72.87,50.76 L72.87,50.77 C72.68,51.04 72.57,51.36 72.57,51.71 C72.57,52.6 73.27,53.33 74.14,53.33 C74.32,53.33 74.76,53.2 74.8,53.18 C77.96,51.83 80.44,51.83 80.44,51.83 C80.44,51.83 82.9,51.84 86.06,53.19 C86.1,53.21 86.54,53.34 86.72,53.34 C87.58,53.34 88.29,52.62 88.29,51.72 C88.28,51.36 88.17,51.04 87.98,50.77 Z" fill="#454140"/>
  <path d="M55.15,50.76 L55.15,50.76 C55.16,50.75 52.88,47.06 47.6,47.06 C42.32,47.06 40.04,50.75 40.04,50.75 L40.05,50.76 C39.86,51.03 39.75,51.35 39.75,51.7 C39.75,52.59 40.45,53.32 41.32,53.32 C41.5,53.32 41.94,53.19 41.98,53.17 C45.14,51.82 47.62,51.82 47.62,51.82 C47.62,51.82 50.08,51.83 53.24,53.18 C53.28,53.2 53.72,53.33 53.9,53.33 C54.77,53.33 55.47,52.61 55.47,51.71 C55.45,51.35 55.33,51.03 55.15,50.76 Z" fill="#454140"/>
</svg>
